X:57
T:The Duke of Leinster
N:Reel      Allan's   #57  pp14
N:Trad/Anon.
B:Allan's Irish Fiddler (pub. Mozart Allen,  Glascow) date unknown
Z:FROM ALLAN'S TO NOTEWORTHY, FROM NOTEWORTHY TO ABC, MIDI AND .TXT BY VINCE
BRENNAN Dec. 2002 (HTTP://WWW.SOSYOURMOM.COM)
I:abc2nwc
M:2/2
L:1/8
K:G
((3DEF) |:G2(BG) dGBG|egfa gedB|G2(BG) dGBG|AcBA GE({F}ED||
G2(BG) dGBG|egfa gedB|G2(BG) dGBG|dBAB GE({F}ED||
dega (bg) {a} ((3gfg)|agbg ageg|dega bage|dBAB GE({F}ED||
dega (bg) {a} ((3gfg)|agbg ageg|bgaf gage|"^^Repeat as required"dBAB GE({F}ED:|"^^Last shaggin' time"G6|]
